X: 1
T: Bonnie Lesley
C: Robert Burns
R: march
Z: John Chambers <jc@trillian.mit.edu>
M: C|
L: 1/8
K: G
[| d>c \
|| "G"cBAG G2G2 | G4 D3E | "F"=F3G F2F2 | A2c2- "D7"c2d>c \
|  "G"cBAG G2G2 | G4 D2G2 | "Em"B2AB "C"cBAG | "G"B2d2- "D7"d2 |]
[| ef \
|| "G"g2d2 e2B2 | "C"c4 "F"=f3c | _BAG=F F3G | A2c2- "D7"c2d2 \
|  "G"cBAG "D7"A2D2 | "G"B3c  "Em"d2g2 | "C"gfef g2G2 | "G"B2d2- "D7"d2 |]
%%sep 5 5 234
K:C
x4 x4 x4 x4 x4 x4 x4 x4 |
x4 x4 x4 x4 x4 x4 x4 x4 |
x4 x4 x4 x4 x4 x4 x4 x4 |
x4 x4 x4 x4 x4 x4 x4 x4 |
x4 x4 x4 x4 x4 x4 x4 x4 |
x4 x4 x4 x4 x4 x4 x4 x4 |
